public/css/svg/layers/Middle.svg

<?xml version="1.0" encoding="UTF-8" standalone="no"?>
<svg
   xmlns:dc="http://purl.org/dc/elements/1.1/"
   xmlns:cc="http://creativecommons.org/ns#"
   xmlns:rdf="http://www.w3.org/1999/02/22-rdf-syntax-ns#"
   xmlns:svg="http://www.w3.org/2000/svg"
   xmlns="http://www.w3.org/2000/svg"
   xmlns:xlink="http://www.w3.org/1999/xlink"
   xmlns:sodipodi="http://sodipodi.sourceforge.net/DTD/sodipodi-0.dtd"
   xmlns:inkscape="http://www.inkscape.org/namespaces/inkscape"
   height="1080"
   id="svg8"
   version="1.1"
   viewBox="0 0 508 285.75001"
   width="1920"
   sodipodi:docname="Middle.svg"
   inkscape:export-filename="D:\WALLPAPER\desert vector.png"
   inkscape:export-xdpi="69"
   inkscape:export-ydpi="69"
   inkscape:version="0.92.5 (2060ec1f9f, 2020-04-08)">
  <defs
     id="defs2">
    <linearGradient
       id="linearGradient5043"
       inkscape:collect="always">
      <stop
         id="stop5041"
         offset="0"
         style="stop-color:#ecbca4;stop-opacity:1" />
      <stop
         id="stop5039"
         offset="1"
         style="stop-color:#feffeb;stop-opacity:1;" />
    </linearGradient>
    <linearGradient
       gradientUnits="userSpaceOnUse"
       id="linearGradient5045"
       x1="250.16428"
       x2="250.16428"
       y1="3.5133791"
       y2="282.54276"
       inkscape:collect="always"
       xlink:href="#linearGradient5043" />
  </defs>
  <sodipodi:namedview
     bordercolor="#000000"
     borderlayer="true"
     borderopacity="1"
     id="base"
     pagecolor="#ffffff"
     showgrid="false"
     showguides="false"
     units="px"
     inkscape:current-layer="layer4"
     inkscape:cx="70.661054"
     inkscape:cy="1053.7849"
     inkscape:document-units="mm"
     inkscape:pageopacity="0.0"
     inkscape:pageshadow="2"
     inkscape:showpageshadow="false"
     inkscape:snap-global="false"
     inkscape:window-height="740"
     inkscape:window-maximized="1"
     inkscape:window-width="1366"
     inkscape:window-x="0"
     inkscape:window-y="0"
     inkscape:zoom="0.175">
    <sodipodi:guide
       id="guide4560"
       orientation="1,0"
       position="-79.375,40.82143"
       inkscape:locked="false" />
  </sodipodi:namedview>
  <metadata
     id="metadata5">
    <rdf:RDF>
      <cc:Work
         rdf:about="">
        <dc:format>image/svg+xml</dc:format>
        <dc:type
           rdf:resource="http://purl.org/dc/dcmitype/StillImage" />
        <dc:title />
      </cc:Work>
    </rdf:RDF>
  </metadata>
  <g
     id="layer4"
     inkscape:groupmode="layer"
     inkscape:label="Middle">
    <path
       style="fill:#ffa34b;fill-opacity:1;stroke:none;stroke-width:0.99999994px;stroke-linecap:butt;stroke-linejoin:miter;stroke-opacity:1"
       d="M 1857.6699 364.8125 A 11.111678 20.20305 0 0 0 1846.5586 385.01562 A 11.111678 20.20305 0 0 0 1857.6699 405.21875 A 11.111678 20.20305 0 0 0 1868.7832 385.01562 A 11.111678 20.20305 0 0 0 1857.6699 364.8125 z M 1458.9961 368.59766 C 1447.5454 368.59766 1438.3262 377.81689 1438.3262 389.26758 L 1438.3262 421.58984 C 1432.7262 422.05644 1426.216 422.23704 1424.9609 420.6543 C 1422.6927 417.79387 1424.9609 398.82813 1424.9609 398.82812 C 1424.9609 394.7975 1421.7162 391.55273 1417.6855 391.55273 C 1413.6549 391.55273 1410.4102 394.7975 1410.4102 398.82812 L 1410.4102 427.92969 C 1410.4102 431.96033 1413.9962 433.85564 1418.0234 434.02148 L 1438.3262 434.85742 L 1438.3262 466.26562 C 1426.1415 466.48649 1408.1047 466.47112 1405.0215 464.50586 C 1400.3111 461.50344 1404.0449 430.19922 1404.0449 430.19922 C 1404.0449 426.23593 1399.9771 423.04492 1394.9238 423.04492 C 1389.8706 423.04492 1385.7284 426.23657 1385.8027 430.19922 L 1386.5352 469.21875 C 1386.6096 473.18136 1393.0439 478.93709 1398.0957 479.05664 L 1438.3262 480.00977 L 1438.3262 520.4375 C 1438.3262 522.33614 1438.5836 524.17197 1439.0586 525.91602 C 1418.9357 535.23826 1399.815 546.49396 1372.9414 558.45898 A 16.667516 19.697974 0 0 0 1361.1797 552.70117 A 16.667516 19.697974 0 0 0 1346.1914 563.8418 A 41.416254 33.335032 0 0 0 1324.3105 558.76172 A 41.416254 33.335032 0 0 0 1288.4746 575.44336 A 19.697974 17.677669 0 0 0 1278.3477 572.9043 A 19.697974 17.677669 0 0 0 1258.6504 590.58203 A 19.697974 17.677669 0 0 0 1259.4199 595.45117 C 1223.1752 604.03466 1178.7146 612.36142 1122.8574 620 C 989.75943 638.20144 910.88868 636.10879 858.7168 626.10547 A 20.708127 17.677669 0 0 0 859.64062 620.88477 A 20.708127 17.677669 0 0 0 838.93164 603.20703 A 20.708127 17.677669 0 0 0 822.24609 610.44727 A 9.0913721 15.152288 0 0 0 813.17188 596.13672 A 9.0913721 15.152288 0 0 0 804.125 609.83203 C 783.69523 601.17866 768.54883 591.61412 752.91602 583.72266 C 753.34058 582.6803 753.57813 581.54222 753.57812 580.34375 L 753.57812 554.00781 L 761.88867 553.81445 C 763.53001 553.7762 764.66835 551.00507 764.67969 549.36328 L 764.79492 531.36328 C 764.80535 529.72153 763.87421 528.3418 762.23242 528.3418 C 760.59063 528.3418 759.26758 529.66489 759.26758 531.30664 C 759.26758 531.30664 759.7932 546.10338 758.41016 547.6582 C 757.96484 548.15882 755.98401 548.31852 753.57812 548.33008 L 753.57812 523.67188 C 753.57812 518.72481 749.5955 514.74219 744.64844 514.74219 C 739.70138 514.74219 735.71875 518.72481 735.71875 523.67188 L 735.71875 537.63086 C 733.28784 537.83578 730.49153 537.92122 729.94531 537.23242 C 728.96539 535.99663 729.94531 527.80273 729.94531 527.80273 C 729.94531 526.06139 728.54216 524.66016 726.80078 524.66016 C 725.0594 524.66016 723.6582 526.06139 723.6582 527.80273 L 723.6582 540.37695 C 723.6582 542.11829 725.20736 542.93615 726.94727 543.00781 L 735.71875 543.36914 L 735.71875 556.92383 C 730.45538 557.02262 722.67719 557.03638 721.33008 556.17773 C 719.29503 554.88056 720.9082 541.35742 720.9082 541.35742 C 720.9082 539.64514 719.15188 538.26563 716.96875 538.26562 C 714.78558 538.26562 712.99522 539.64545 713.02734 541.35742 L 713.34375 558.21484 C 713.37399 559.92682 716.15533 562.41318 718.33789 562.46484 L 735.71875 562.87695 L 735.71875 576.02344 C 728.02825 573.10438 719.79181 570.73711 710.44727 569.17969 C 688.67802 565.55148 669.1584 568.03439 650.13281 574.47656 L 650.13281 553.85352 L 680.76953 553.12891 C 684.61679 553.03786 689.51753 548.65448 689.57422 545.63672 L 690.13281 515.92188 C 690.18943 512.90407 687.03386 510.47266 683.18555 510.47266 C 679.33723 510.47266 676.24023 512.90354 676.24023 515.92188 C 676.24023 515.92188 679.08332 539.76037 675.49609 542.04688 C 673.14799 543.54353 659.41211 543.55688 650.13281 543.38867 L 650.13281 519.46875 L 665.59375 518.83203 C 668.66072 518.70576 671.39258 517.2629 671.39258 514.19336 L 671.39258 492.0293 C 671.39258 488.95972 668.92114 486.49023 665.85156 486.49023 C 662.78202 486.49023 660.31055 488.95972 660.31055 492.0293 C 660.31055 492.0293 662.0379 506.47398 660.31055 508.65234 C 659.35469 509.85775 654.39768 509.72062 650.13281 509.36523 L 650.13281 484.75 C 650.13281 476.02965 643.11292 469.00781 634.39258 469.00781 C 625.67223 469.00781 618.65039 476.02965 618.65039 484.75 L 618.65039 528.24219 C 614.3708 528.22553 610.92487 527.91946 610.13477 527.03125 C 607.69682 524.29056 608.62109 498.20508 608.62109 498.20508 C 608.62109 495.31106 606.29051 492.98047 603.39648 492.98047 C 600.50246 492.98047 598.8605 495.4107 598.87891 498.30469 L 599.08203 530.03516 C 599.10093 532.92914 601.10869 537.81542 604.00195 537.88281 L 618.65039 538.22461 L 618.65039 584.64258 C 618.65039 585.88702 618.80766 587.09222 619.07812 588.25195 C 602.55635 597.07239 585.6348 608.03738 567.26562 619.69727 A 17.677669 27.274118 0 0 0 552.04883 606.23828 A 17.677669 27.274118 0 0 0 535.41797 624.35938 A 13.131983 12.121831 0 0 0 530.33008 623.41016 A 13.131983 12.121831 0 0 0 517.37695 633.62891 A 20.708127 28.284271 0 0 0 515.68359 633.51172 A 20.708127 28.284271 0 0 0 494.99609 661.23047 C 481.34709 667.88852 466.74121 674.23835 450.9375 680 C 307.18402 732.40901 232.00335 603.26342 106.28906 600.40625 C 99.777629 600.25826 93.539771 600.27799 87.537109 600.43359 A 26.263965 11.111678 0 0 0 61.619141 591.08594 A 26.263965 11.111678 0 0 0 37.080078 598.27344 A 17.677669 9.5964485 0 0 0 28.789062 597.14648 A 17.677669 9.5964485 0 0 0 11.111328 606.74414 A 17.677669 9.5964485 0 0 0 13.880859 611.89648 C -34.93289 627.75996 -48.572266 654.28516 -48.572266 654.28516 L -97.142578 1111.4277 L 2028.5723 1128.5723 L 2034.2852 460 C 2034.2852 460 2027.3197 510.47374 1950.9043 543.5 A 55.053311 34.345186 0 0 0 1901.6113 524.41602 A 55.053311 34.345186 0 0 0 1848.2871 550.39648 A 27.274118 23.233509 0 0 0 1835.4473 547.65039 A 27.274118 23.233509 0 0 0 1808.2891 568.89453 C 1720.309 562.4365 1721.8663 498.69225 1567.7949 501.09961 C 1529.0636 501.70478 1501.7955 505.3466 1479.6641 511.13086 L 1479.6641 459.48438 L 1498.9004 459.03516 C 1502.6995 458.94664 1505.3387 452.53056 1505.3613 448.73047 L 1505.627 407.06641 C 1505.6511 403.26636 1503.4955 400.07617 1499.6953 400.07617 C 1495.8952 400.07617 1492.8359 403.13542 1492.8359 406.93555 C 1492.8359 406.93555 1494.0489 441.18832 1490.8477 444.78711 C 1489.8101 445.95355 1485.2844 446.35711 1479.6641 446.37891 L 1479.6641 389.26758 C 1479.6641 377.81689 1470.4468 368.59766 1458.9961 368.59766 z M 1729.3809 402.69336 A 11.616754 12.879445 0 0 0 1717.7637 415.57227 A 11.616754 12.879445 0 0 0 1729.3809 428.45117 A 11.616754 12.879445 0 0 0 1740.998 415.57227 A 11.616754 12.879445 0 0 0 1729.3809 402.69336 z M 1659.1758 405.72266 A 29.7995 21.970818 0 0 0 1632.123 418.53711 A 11.111678 14.647212 0 0 0 1624.3262 414.30859 A 11.111678 14.647212 0 0 0 1613.2129 428.95703 A 11.111678 14.647212 0 0 0 1624.3262 443.60352 A 11.111678 14.647212 0 0 0 1632.9785 438.125 A 29.7995 21.970818 0 0 0 1659.1758 449.66406 A 29.7995 21.970818 0 0 0 1688.9746 427.69336 A 29.7995 21.970818 0 0 0 1659.1758 405.72266 z M 1569.2715 426.93555 A 13.131983 8.0812201 0 0 0 1556.1406 435.01758 A 13.131983 8.0812201 0 0 0 1569.2715 443.09961 A 13.131983 8.0812201 0 0 0 1582.4043 435.01758 A 13.131983 8.0812201 0 0 0 1569.2715 426.93555 z "
       transform="scale(0.26458333)"
       id="path851" />
  </g>
</svg>

<?xml version="1.0" encoding="UTF-8" standalone="no"?>
<svg
   xmlns:dc="http://purl.org/dc/elements/1.1/"
   xmlns:cc="http://creativecommons.org/ns#"
   xmlns:rdf="http://www.w3.org/1999/02/22-rdf-syntax-ns#"
   xmlns:svg="http://www.w3.org/2000/svg"
   xmlns="http://www.w3.org/2000/svg"
   xmlns:xlink="http://www.w3.org/1999/xlink"
   xmlns:sodipodi="http://sodipodi.sourceforge.net/DTD/sodipodi-0.dtd"
   xmlns:inkscape="http://www.inkscape.org/namespaces/inkscape"
   height="1080"
   id="svg8"
   version="1.1"
   viewBox="0 0 508 285.75001"
   width="1920"
   sodipodi:docname="Middle.svg"
   inkscape:export-filename="D:\WALLPAPER\desert vector.png"
   inkscape:export-xdpi="69"
   inkscape:export-ydpi="69"
   inkscape:version="0.92.4 (5da689c313, 2019-01-14)">
  <defs
     id="defs2">
    <linearGradient
       id="linearGradient5043"
       inkscape:collect="always">
      <stop
         id="stop5041"
         offset="0"
         style="stop-color:#ecbca4;stop-opacity:1" />
      <stop
         id="stop5039"
         offset="1"
         style="stop-color:#feffeb;stop-opacity:1;" />
    </linearGradient>
    <linearGradient
       gradientUnits="userSpaceOnUse"
       id="linearGradient5045"
       x1="250.16428"
       x2="250.16428"
       y1="3.5133791"
       y2="282.54276"
       inkscape:collect="always"
       xlink:href="#linearGradient5043" />
  </defs>
  <sodipodi:namedview
     bordercolor="#000000"
     borderlayer="true"
     borderopacity="1"
     id="base"
     pagecolor="#ffffff"
     showgrid="false"
     showguides="false"
     units="px"
     inkscape:current-layer="layer4"
     inkscape:cx="1118.8181"
     inkscape:cy="809.62389"
     inkscape:document-units="mm"
     inkscape:pageopacity="0.0"
     inkscape:pageshadow="2"
     inkscape:showpageshadow="false"
     inkscape:snap-global="false"
     inkscape:window-height="705"
     inkscape:window-maximized="1"
     inkscape:window-width="1366"
     inkscape:window-x="-8"
     inkscape:window-y="-8"
     inkscape:zoom="0.175">
    <sodipodi:guide
       id="guide4560"
       orientation="1,0"
       position="-79.375,40.82143"
       inkscape:locked="false" />
  </sodipodi:namedview>
  <metadata
     id="metadata5">
    <rdf:RDF>
      <cc:Work
         rdf:about="">
        <dc:format>image/svg+xml</dc:format>
        <dc:type
           rdf:resource="http://purl.org/dc/dcmitype/StillImage" />
        <dc:title />
      </cc:Work>
    </rdf:RDF>
  </metadata>
  <g
     id="layer4"
     inkscape:groupmode="layer"
     inkscape:label="Middle">
    <path
       style="fill:#ffa34b;fill-opacity:1;stroke:none;stroke-width:0.99999994px;stroke-linecap:butt;stroke-linejoin:miter;stroke-opacity:1"
       d="m 1458.9961,368.59766 c -11.4507,0 -20.6699,9.21923 -20.6699,20.66992 v 32.32226 c -5.6,0.4666 -12.1102,0.6472 -13.3653,-0.93554 -2.2682,-2.86043 0,-21.82617 0,-21.82618 0,-4.03062 -3.2447,-7.27539 -7.2754,-7.27539 -4.0306,0 -7.2753,3.24477 -7.2753,7.27539 v 29.10157 c 0,4.03064 3.586,5.92595 7.6132,6.09179 l 20.3028,0.83594 v 31.4082 c -12.1847,0.22087 -30.2215,0.2055 -33.3047,-1.75976 -4.7104,-3.00242 -0.9766,-34.30664 -0.9766,-34.30664 0,-3.96329 -4.0678,-7.1543 -9.1211,-7.1543 -5.0532,0 -9.1954,3.19165 -9.1211,7.1543 l 0.7325,39.01953 c 0.074,3.96261 6.5087,9.71834 11.5605,9.83789 l 40.2305,0.95313 v 40.42773 c 0,1.89864 0.2574,3.73447 0.7324,5.47852 -20.1229,9.32224 -39.2436,20.57794 -66.1172,32.54296 -3.1215,-3.68289 -7.3509,-5.75337 -11.7617,-5.75781 -6.3901,0.011 -12.2123,4.33859 -14.9883,11.14063 -6.5606,-3.30576 -14.1408,-5.06566 -21.8809,-5.08008 -14.7889,0.012 -28.4477,6.37018 -35.8359,16.68164 -3.0569,-1.6542 -6.5573,-2.53182 -10.1269,-2.53906 -10.8787,3.3e-4 -19.6973,7.91484 -19.6973,17.67773 0,1.64729 0.2615,3.2862 0.7695,4.86914 -36.2447,8.58349 -80.7053,16.91025 -136.5625,24.54883 -133.09797,18.20144 -211.96872,16.10879 -264.1406,6.10547 0.61236,-1.69094 0.92377,-3.4508 0.92382,-5.2207 5e-5,-9.76342 -9.27183,-17.67814 -20.70898,-17.67774 -6.5951,0.008 -12.7916,2.69635 -16.68555,7.24024 -0.26796,-8.02693 -4.25061,-14.30779 -9.07421,-14.31055 -4.68151,0.002 -8.59673,5.92894 -9.04688,13.69531 -20.42977,-8.65337 -35.57617,-18.21791 -51.20898,-26.10937 0.42456,-1.04236 0.66211,-2.18044 0.6621,-3.37891 v -26.33594 l 8.31055,-0.19336 c 1.64134,-0.0382 2.77968,-2.80938 2.79102,-4.45117 l 0.11523,-18 c 0.0104,-1.64175 -0.92071,-3.02148 -2.5625,-3.02148 -1.64179,0 -2.96484,1.32309 -2.96484,2.96484 0,0 0.52562,14.79674 -0.85742,16.35156 -0.44532,0.50062 -2.42615,0.66032 -4.83204,0.67188 v -24.6582 c 0,-4.94707 -3.98262,-8.92969 -8.92968,-8.92969 -4.94706,0 -8.92969,3.98262 -8.92969,8.92969 v 13.95898 c -2.43091,0.20492 -5.22722,0.29036 -5.77344,-0.39844 -0.97992,-1.23579 0,-9.42969 0,-9.42969 0,-1.74134 -1.40315,-3.14257 -3.14453,-3.14257 -1.74138,0 -3.14258,1.40123 -3.14258,3.14257 v 12.57422 c 0,1.74134 1.54916,2.5592 3.28907,2.63086 l 8.77148,0.36133 v 13.55469 c -5.26337,0.0988 -13.04156,0.11255 -14.38867,-0.7461 -2.03505,-1.29717 -0.42188,-14.82031 -0.42188,-14.82031 0,-1.71228 -1.75632,-3.09179 -3.93945,-3.0918 -2.18317,0 -3.97353,1.37983 -3.94141,3.0918 l 0.31641,16.85742 c 0.0302,1.71198 2.81158,4.19834 4.99414,4.25 l 17.38086,0.41211 v 13.14649 c -7.6905,-2.91906 -15.92694,-5.28633 -25.27148,-6.84375 -21.76925,-3.62821 -41.28887,-1.1453 -60.31446,5.29687 v -20.62304 l 30.63672,-0.72461 c 3.84726,-0.091 8.748,-4.47443 8.80469,-7.49219 l 0.55859,-29.71484 c 0.0566,-3.01781 -3.09895,-5.44922 -6.94726,-5.44922 -3.84832,0 -6.94532,2.43088 -6.94532,5.44922 0,0 2.84309,23.83849 -0.74414,26.125 -2.3481,1.49665 -16.08398,1.51 -25.36328,1.34179 v -23.91992 l 15.46094,-0.63672 c 3.06697,-0.12627 5.79883,-1.56913 5.79883,-4.63867 V 492.0293 c 0,-3.06958 -2.47144,-5.53907 -5.54102,-5.53907 -3.06954,0 -5.54101,2.46949 -5.54101,5.53907 0,0 1.72735,14.44468 0,16.62304 -0.95586,1.20541 -5.91287,1.06828 -10.17774,0.71289 V 484.75 c 0,-8.72035 -7.01989,-15.74219 -15.74023,-15.74219 -8.72035,0 -15.74219,7.02184 -15.74219,15.74219 v 43.49219 c -4.27959,-0.0167 -7.72552,-0.32273 -8.51562,-1.21094 -2.43795,-2.74069 -1.51368,-28.82617 -1.51368,-28.82617 0,-2.89402 -2.33058,-5.22461 -5.22461,-5.22461 -2.89402,0 -4.53598,2.43023 -4.51757,5.32422 l 0.20312,31.73047 c 0.0189,2.89398 2.02666,7.78026 4.91992,7.84765 l 14.64844,0.3418 v 46.41797 c 0,1.24444 0.15727,2.44964 0.42773,3.60937 -16.52177,8.82044 -33.44332,19.78543 -51.8125,31.44532 -3.17031,-8.32614 -8.95789,-13.44516 -15.21679,-13.45899 -7.468,0.0141 -14.12465,7.26723 -16.63086,18.1211 -1.61065,-0.62574 -3.3404,-0.94845 -5.08789,-0.94922 -6.45064,0.007 -11.94041,4.33815 -12.95313,10.21875 -0.56305,-0.0706 -1.12797,-0.10972 -1.69336,-0.11719 -11.269,0.0122 -20.46219,12.33002 -20.6875,27.71875 -13.649,6.65805 -28.25488,13.00788 -44.05859,18.76953 -143.75348,52.40901 -218.93415,-76.73658 -344.64844,-79.59375 -6.511431,-0.14799 -12.749289,-0.12826 -18.751951,0.0273 -2.04647,-5.38464 -13.02717,-9.34497 -25.917968,-9.34765 -10.915195,0.006 -20.68428,2.86709 -24.539063,7.1875 -2.552266,-0.73814 -5.399143,-1.12511 -8.291016,-1.12696 -9.764004,-2e-5 -17.678967,4.2972 -17.677734,9.59766 0.0017,1.82549 0.962416,3.61285 2.769531,5.15234 -48.813749,15.86348 -62.453125,42.38868 -62.453125,42.38868 L -97.142578,1111.4277 2028.5723,1128.5723 2034.2852,460 c 0,0 -6.9655,50.47374 -83.3809,83.5 -9.2898,-11.68427 -28.3865,-19.07764 -49.293,-19.08398 -25.2141,0.0204 -47.1833,10.72417 -53.3242,25.98046 -3.9502,-1.79971 -8.3601,-2.74286 -12.8398,-2.74609 -14.1518,0.007 -25.9465,9.23317 -27.1582,21.24414 -87.9801,-6.45803 -86.4228,-70.20228 -240.4942,-67.79492 -38.7313,0.60517 -65.9994,4.24699 -88.1308,10.03125 v -51.64648 l 19.2363,-0.44922 c 3.7991,-0.0885 6.4383,-6.5046 6.4609,-10.30469 l 0.2657,-41.66406 c 0.024,-3.80005 -2.1315,-6.99024 -5.9317,-6.99024 -3.8001,0 -6.8594,3.05925 -6.8594,6.85938 0,0 1.213,34.25277 -1.9882,37.85156 -1.0376,1.16644 -5.5633,1.57 -11.1836,1.5918 v -57.11133 c 0,-11.45069 -9.2173,-20.66992 -20.668,-20.66992 z"
       transform="scale(0.26458333)"
       id="path851"
       inkscape:connector-curvature="0"
       sodipodi:nodetypes="ssccsssscccccsccccscccccccccsccccccccccccscccssscccssscccccccccccscccccscccccssscccssscccsccccsccccccccsscccccccccccccccscccccscccss" />
  </g>
</svg>
